client/src/assets/images/global/user-add.svg

<svg width="24px" height="24px" viewBox="0 0 24 24" version="1.1" xmlns="http://www.w3.org/2000/svg" xmlns:xlink="http://www.w3.org/1999/xlink">
    <g stroke="none" stroke-width="1" fill="none" fill-rule="evenodd">
        <g transform="translate(-136.000000, -863.000000)">
            <g id="343" transform="translate(136.000000, 863.000000)">
                <path d="M14.2571621,15 L7,15 C4.20063223,15 2.390348,16.1679253 1.5255785,18.0896353 C1.07423388,19.0926234 0.949016905,20.1108713 0.995546634,20.9698816 C0.998604759,21.0263393 1.0014872,21.0632937 1.00496281,21.0995037 C1.0599172,21.6490476 1.54995985,22.0499916 2.09950372,21.9950372 C2.64904758,21.9400828 3.04999158,21.4500401 2.99503719,20.9004963 C2.99555422,20.9071205 2.99399879,20.8871791 2.99261905,20.8617069 C2.96185588,20.2937714 3.05021139,19.575276 3.34942151,18.9103647 C3.890902,17.7070747 4.98686778,17 7,17 L12.0070975,17 L13.2070325,17 C13.4170071,16.2576107 13.7789623,15.5790321 14.2571621,15 Z" id="Path-41" fill="#000000" fill-rule="nonzero"></path>
                <path d="M19,18 L19,16.4976988 C19,16.2228273 18.7680664,16 18.5,16 C18.2238576,16 18,16.2148438 18,16.4976988 L18,18 L16.4976988,18 C16.2148438,18 16,18.2238576 16,18.5 C16,18.7680664 16.2228273,19 16.4976988,19 L18,19 L18,20.5023012 C18,20.7771727 18.2319336,21 18.5,21 C18.7761424,21 19,20.7851562 19,20.5023012 L19,19 L20.5023012,19 C20.7851562,19 21,18.7761424 21,18.5 C21,18.2319336 20.7771727,18 20.5023012,18 L19,18 Z M18.5,23 C16.0147186,23 14,20.9852814 14,18.5 C14,16.0147186 16.0147186,14 18.5,14 C20.9852814,14 23,16.0147186 23,18.5 C23,20.9852814 20.9852814,23 18.5,23 Z" id="Combined-Shape" fill="#000000"></path>
                <circle id="Oval-40" stroke="#000000" stroke-width="2" cx="12" cy="8" r="5"></circle>
            </g>
        </g>
    </g>
</svg>

<svg xmlns="http://www.w3.org/2000/svg" viewBox="0 0 24 24">
  <defs/>
  <g fill="none" fill-rule="evenodd">
    <path fill="#000" fill-rule="nonzero" d="M14.3 15H7c-2.8 0-4.6 1.2-5.5 3a6.2 6.2 0 00-.5 3.1 1 1 0 102-.2c0-.6 0-1.3.3-2C4 17.7 5 17 7 17h6.2c.2-.7.6-1.4 1-2z"/>
    <path fill="#000" d="M19 18v-1.5c0-.3-.2-.5-.5-.5s-.5.2-.5.5V18h-1.5c-.3 0-.5.2-.5.5s.2.5.5.5H18v1.5c0 .3.2.5.5.5s.5-.2.5-.5V19h1.5c.3 0 .5-.2.5-.5s-.2-.5-.5-.5H19zm-.5 5a4.5 4.5 0 110-9 4.5 4.5 0 010 9z"/>
    <circle cx="12" cy="8" r="5" stroke="#000" stroke-width="2"/>
  </g>
</svg>
